assets/ios/swift/Icons.xcassets/userProfile.imageset/userProfile.svg

<svg width="24" height="24" viewBox="0 0 24 24" fill="none" xmlns="http://www.w3.org/2000/svg">
<path d="M9.175 13.825C9.95833 14.6083 10.9 15 12 15C13.1 15 14.0417 14.6083 14.825 13.825C15.6083 13.0417 16 12.1 16 11C16 9.9 15.6083 8.95833 14.825 8.175C14.0417 7.39167 13.1 7 12 7C10.9 7 9.95833 7.39167 9.175 8.175C8.39167 8.95833 8 9.9 8 11C8 12.1 8.39167 13.0417 9.175 13.825ZM13.4125 12.4125C13.0208 12.8042 12.55 13 12 13C11.45 13 10.9792 12.8042 10.5875 12.4125C10.1958 12.0208 10 11.55 10 11C10 10.45 10.1958 9.97917 10.5875 9.5875C10.9792 9.19583 11.45 9 12 9C12.55 9 13.0208 9.19583 13.4125 9.5875C13.8042 9.97917 14 10.45 14 11C14 11.55 13.8042 12.0208 13.4125 12.4125Z" fill="black"/>
<path d="M22 12C22 17.5228 17.5228 22 12 22C6.47715 22 2 17.5228 2 12C2 6.47715 6.47715 2 12 2C17.5228 2 22 6.47715 22 12ZM20 12C20 7.58172 16.4183 4 12 4C7.58172 4 4 7.58172 4 12C4 16.4183 7.58172 20 12 20C16.4183 20 20 16.4183 20 12Z" fill="black"/>
<path d="M16.2297 18.7917C15.7472 18.6085 15.2623 18.4571 14.775 18.3375C13.8583 18.1125 12.9333 18 12 18C11.0667 18 10.1417 18.1125 9.225 18.3375C8.73774 18.4571 8.25283 18.6085 7.77028 18.7917C7.12696 18.3902 6.54483 17.8998 6.04104 17.3378C6.93176 16.9259 7.83474 16.6092 8.75 16.3875C9.81667 16.1292 10.9 16 12 16C13.1 16 14.1833 16.1292 15.25 16.3875C16.1653 16.6092 17.0682 16.9259 17.959 17.3378C17.4552 17.8998 16.873 18.3902 16.2297 18.7917Z" fill="black"/>
</svg>

<svg xmlns="http://www.w3.org/2000/svg" width="24" height="24" fill="black" viewBox="0 0 24 24">
  <path d="M9.175 13.825C9.958 14.608 10.9 15 12 15s2.042-.392 2.825-1.175C15.608 13.042 16 12.1 16 11s-.392-2.042-1.175-2.825C14.042 7.392 13.1 7 12 7s-2.042.392-2.825 1.175C8.392 8.958 8 9.9 8 11s.392 2.042 1.175 2.825Zm4.237-1.412A1.926 1.926 0 0 1 12 13c-.55 0-1.02-.196-1.412-.588A1.926 1.926 0 0 1 10 11c0-.55.196-1.02.588-1.412A1.926 1.926 0 0 1 12 9c.55 0 1.02.196 1.412.588.392.391.588.862.588 1.412 0 .55-.196 1.02-.588 1.412Z"/>
  <path d="M22 12c0 5.523-4.477 10-10 10S2 17.523 2 12 6.477 2 12 2s10 4.477 10 10Zm-2 0a8 8 0 1 0-16 0 8 8 0 0 0 16 0Z"/>
  <path d="M16.23 18.792a12.47 12.47 0 0 0-1.455-.455 11.6 11.6 0 0 0-5.55 0c-.487.12-.972.271-1.455.455a8.04 8.04 0 0 1-1.729-1.454c.89-.412 1.794-.729 2.709-.95A13.76 13.76 0 0 1 12 16c1.1 0 2.183.13 3.25.387a14.78 14.78 0 0 1 2.709.95 8.042 8.042 0 0 1-1.73 1.455Z"/>
</svg>
